src/assets/binder-icon.svg

<svg fill="none" height="20" viewBox="0 0 20 20" width="20" xmlns="http://www.w3.org/2000/svg"><path clip-rule="evenodd" d="m16 4.5h-8.5v11h8.5c.2761 0 .5-.2239.5-.5v-10c0-.27614-.2239-.5-.5-.5zm-12 0h2v11h-2c-.27614 0-.5-.2239-.5-.5v-10c0-.27614.22386-.5.5-.5zm0-1.5c-1.10457 0-2 .89543-2 2v10c0 1.1046.89543 2 2 2h12c1.1046 0 2-.8954 2-2v-10c0-1.10457-.8954-2-2-2zm11 6v-2h-6v2z" fill="#666f7d" fill-rule="evenodd"/></svg>

<svg width="20" height="20" viewBox="0 0 20 20" fill="none" xmlns="http://www.w3.org/2000/svg">
<path fill-rule="evenodd" clip-rule="evenodd" d="M16 4.5H7.5L7.5 15.5H16C16.2761 15.5 16.5 15.2761 16.5 15V5C16.5 4.72386 16.2761 4.5 16 4.5ZM4 4.5H6L6 15.5H4C3.72386 15.5 3.5 15.2761 3.5 15V5C3.5 4.72386 3.72386 4.5 4 4.5ZM4 3C2.89543 3 2 3.89543 2 5V15C2 16.1046 2.89543 17 4 17H16C17.1046 17 18 16.1046 18 15V5C18 3.89543 17.1046 3 16 3H4ZM15 9V7L9 7V9H15Z" fill="#666F7D"/>
</svg>
